!!!COM: Dunstable, John
!!!OTL: Salve Regina misericordie (with trope Virgo Mater)
!!!ONM: No. 46
!!!YOR: from: "Musica Britannica" Vol. 8, edited by Manfred F. Bukofzer,
!!!YOR: 2nd rev. ed. (prepared by Margaret Bent, Ian Bent & Brian Trowell), pp.115-118
!!!YOO: Royal Musical Association (London)
!!!YOY: 1970
**kern	**kern	**kern
*ICvox	*ICvox	*ICvox
! tenor	! contratenor	! discantus
*M3/4	*M3/4	*M3/4
=1	=1	=1
*>A1	*>A1	*>A1
!! Section 'A1'; (O) mensuration.
2.G	2.C	2g
.	.	8.e
.	.	16f
=2	=2	=2
2.A	2.F	4d
.	.	4c
.	.	4f
=3	=3	=3
2.c	2.C	4e
.	.	4.a
.	.	8g
=4	=4	=4
4B	4G	[4g
2A	4A	12g]
.	.	12f#x
.	.	12g
.	4c	8f#x
.	.	8e
=5	=5	=5
2.G	2.B	4.g
.	.	8f
.	.	8e
.	.	8d
=6	=6	=6
2A	4A	4c
.	4D	4f
4G	8.B	8e
.	.	8d
.	16c	.
=7	=7	=7
4F	2A	8d
.	.	16c
.	.	16d
2E	.	8e
.	.	4c#x
.	4G	.
.	.	8B
=8	=8	=8
2.D	[4A	2d
.	12A]	.
.	12G	.
.	12A	.
.	8F	4r
.	8D	.
=9	=9	=9
2d	2D	4.d
.	.	8e
4d	4D	4f
=10	=10	=10
4c	4E	4g
2d	4D	4f
.	4G	4d
=11	=11	=11
4B	4B	8g
.	.	4a
2A	4.c	.
.	.	4f
.	16B	8e
.	16c	.
=12	=12	=12
[2.G	8d	4.g
.	4e	.
.	8d	8a
.	8c	8g
.	8B	8e
=13	=13	=13
2.G]	2B	4e
.	.	4r
.	4G	4d
=14	=14	=14
4r	4E	4g
2A	2c	2f
=15	=15	=15
4G	2B	2e
2F	.	.
.	4A	4d
=16	=16	=16
2.E	2B	8e
.	.	16d
.	.	16e
.	.	8f
.	.	4e
.	[4e	.
.	.	8c
=17	=17	=17
2.G	4e]	2B
.	4.d	.
.	.	4G
.	8B	.
=18	=18	=18
2C	8c	4A
.	8B	.
.	4.G	2c
[4E	.	.
.	8C	.
=19	=19	=19
4E]	8G	2c
.	16F	.
.	16G	.
2D	8A	.
.	4F	.
.	.	8B
.	16E	8A
.	16F	.
=20	=20	=20
[2.C	2G	2.c
.	4E	.
=21	=21	=21
2.C]	4A	2.r
.	4G	.
.	4E	.
=22	=22	=22
*>A2	*>A2	*>A2
!! Section 'A2'; (O) mensuration.
2.r	2c	4.e
.	.	8f
.	4c	4g
=23	=23	=23
2.r	2.d	4f
.	.	4d
.	.	4a
=24	=24	=24
2.r	2e	4g
.	.	2b
.	8d	.
.	8c	.
=25	=25	=25
2.r	4A	2a
.	2B-	.
.	.	8g
.	.	8f
=26	=26	=26
2.r	2.F	4a
.	.	8f
.	.	8d
.	.	8f
.	.	[8e
=27	=27	=27
2.r	8G	16e]
.	.	16d
.	4A	8c
.	.	8A
.	8F	4d
.	4E	.
.	.	8c#x
=28	=28	=28
*>A3	*>A3	*>A3
!! Section 'A3'; (O) mensuration.
[2.D	4D	2d
.	4r	.
.	4d	4r
=29	=29	=29
2.D]	4d	4.f
.	2A	.
.	.	8g
.	.	4a
=30	=30	=30
[2.d	[2.D	4a
.	.	4.b-x
.	.	8a
=31	=31	=31
2.d]	2.D]	4a
.	.	8g
.	.	4f
.	.	8e
=32	=32	=32
2.B	2G	4e
.	.	4.d
.	4G	.
.	.	16c
.	.	16d
=33	=33	=33
2.c	2C	4e
.	.	8f
.	.	4g
.	4C	.
.	.	8e
=34	=34	=34
[2.A	2.F	4d
.	.	4c
.	.	4f
=35	=35	=35
4A]	4c	2f
2G	4.B	.
.	.	8e
.	16A	8d
.	16B	.
=36	=36	=36
2.F	8c	2f
.	4d	.
.	8c	.
.	8B	4r
.	8A	.
=37	=37	=37
2.C	2.c	4e
.	.	8g
.	.	4a
.	.	8g
=38	=38	=38
2.G	2C	4.e
.	.	16d
.	.	16e
.	4C	8f
.	.	8e
=39	=39	=39
2.A	2F	4c
.	.	8d
.	.	4f
.	4A	.
.	.	8e
=40	=40	=40
4F	4A	8d
.	.	8.e
2E	4B	.
.	.	16d
.	.	4d
.	8G	.
.	16F#x	8c#x
.	16G	.
=41	=41	=41
2.D	4A	4d
.	8B	4r
.	4d	.
.	.	8.f
.	8c	.
.	.	16e
=42	=42	=42
2.G	2B	4e
.	.	8d
.	.	8.B
.	4G	.
.	.	16c
.	.	8d
=43	=43	=43
2.F	4d	4A
.	4c	8B
.	.	4c
.	4A	.
.	.	8d
=44	=44	=44
2.G	2B	4B
.	.	4G
.	4G	4e
=45	=45	=45
2E	4C	8e
.	.	16d
.	.	16e
.	4C	8f
.	.	8e
[4F	4r	8d
.	.	8c
=46	=46	=46
4F]	4.A	[4c
2D	.	12c]
.	.	12B
.	4F	.
.	.	12c
.	.	6B
.	8E	12A
=47	=47	=47
[2.C	2.G	2.c
=48	=48	=48
2.C]	2.c	2.r
=49	=49	=49
[2.c	2C	2e
.	4C	4a
=50	=50	=50
2.c]	4F	4a
.	2C	4g
.	.	4e
=51	=51	=51
2.F	2A	4f
.	.	4.d
.	4c	.
.	.	8c
=52	=52	=52
2.A	4c	2c
.	4A	.
.	4r	[4e
=53	=53	=53
2.c	4A	4e]
.	4.E	4g
.	.	4a
.	8D	.
=54	=54	=54
2.d	2.D	4f
.	.	4.b-
.	.	8a
=55	=55	=55
2c	4F	4a
.	4E	2g
[4B	4G	.
=56	=56	=56
4B]	4B	2g
2A	2c	.
.	.	4f#x
=57	=57	=57
2.G	4.d	2.g
.	8e	.
.	8.d	.
.	16B	.
=58	=58	=58
*>A4	*>A4	*>A4
!! Section 'A4'; (O) mensuration.
2.B	4B	2.r
.	4.d	.
.	8c	.
=59	=59	=59
4A	4c	2.r
4B	2B	.
4G	.	.
=60	=60	=60
2A	4A	2.r
.	8c	.
.	4e	.
4G	.	.
.	8d	.
=61	=61	=61
4D	[4d	2.r
2E	12d]	.
.	12c#x	.
.	12d	.
.	8c#x	.
.	8B	.
=62	=62	=62
[2.D	4.d	2r
.	8d	.
.	8c	4a
.	8B	.
=63	=63	=63
2.D]	2A	8a
.	.	16g
.	.	16a
.	.	8b-x
.	.	8.a
.	4F	.
.	.	16g
.	.	16f
.	.	16e
=64	=64	=64
[2.G	2C	4e
.	.	8f
.	.	4g
.	4r	.
.	.	8f
=65	=65	=65
2.G_	2B	8d
.	.	4e
.	.	8d
.	4d	4B
=66	=66	=66
2.G_	4e	8G
.	.	8B
.	4d	8c
.	.	8.d
.	4B	.
.	.	16c
.	.	8d
=67	=67	=67
2.G]	2B	4e
.	.	8d
.	.	8.d
.	4d	.
.	.	16c
.	.	16B
.	.	16A
=68	=68	=68
2.A	2c	4A
.	.	4r
.	4A	4c
=69	=69	=69
4G	4B	4.d
2F	2A	.
.	.	8.c
.	.	16B
.	.	8A
=70	=70	=70
2G	4G	8B
.	.	8G
.	2C	8B
.	.	8.c
4E	.	.
.	.	16d
.	.	[8e
=71	=71	=71
2C	4E	8e]
.	.	8d
.	2G	4.c
[4E	.	8A
=72	=72	=72
4E]	4G	8c
.	.	8.B
2D	8A	.
.	.	16c
.	4F#x	8d
.	.	8A
.	16E	8B
.	16F#x	.
=73	=73	=73
[2.C	[2.G	[2.c
=73a	=73a	=73a
2.C]	2.G]	2.c]
=74	=74	=74
*>B	*>B	*>B
!! Section 'B'; (C) mensuration.
*M4/4	*M4/4	*M4/4
1c	1C	2e
.	.	2g
=75	=75	=75
2d	2B	4.f#x
.	.	8d
4c	4c	4e
4B	[4d	4f#x
=76	=76	=76
4G	4d]	2g
4B	2d	.
2A	.	4a
.	4c	4f#x
=77	=77	=77
1G	4e	2g
.	4d	.
.	2B	4d
.	.	[4e
=78	=78	=78
4E	4c	4e]
4F	2A	4d
2C	.	4e
.	[4E	[4g
=79	=79	=79
4c	4E]	8g]
.	.	8a
2d	4D	4f
.	2G	4d
4B	.	4g
=80	=80	=80
*M3/2	*M3/2	*M3/2
2A	4A	4f
.	2c	4.e
2F	.	.
.	.	8d
.	4A	2d
2E	4.B	.
.	.	4c#x
.	8G	.
=81	=81	=81
2D	2A	2d
4G	1r	4B
2A	.	4c
.	.	2A
4F#x	.	.
=82	=82	=82
*M4/4	*M4/4	*M4/4
1G	2d	2G
.	4.B	4r
.	.	4B
.	8G	.
=83	=83	=83
*M3/2	*M3/2	*M3/2
2F	2D	4A
.	.	4.d
2E	4.G	.
.	.	8c
.	.	2c
.	8E	.
2D	2F	.
.	.	4B
!! numbering system out by 1
=85	=85	=85
1.C	1.G	2c
.	.	4r
.	.	4e
.	.	3e
.	.	6c
=86	=86	=86
*M4/4	*M4/4	*M4/4
[1c	[1C	4e
.	.	4f
.	.	2g
=87	=87	=87
1c]	1C]	3a
.	.	6g
.	.	2e
=88	=88	=88
2B	2G	3d
.	.	6B
2A	4A	4c
.	4c	12A
.	.	6c
=89	=89	=89
1G	2B	6d
.	.	4e
.	.	12f
.	4r	6g
.	.	6d
.	4B	.
.	.	9e
.	.	9d
.	.	9e
=90	=90	=90
1F	2c	2f
.	2A	2r
=91	=91	=91
1C	4c	2e
.	4B	.
.	2G	4e
.	.	4g
=92	=92	=92
2F	2A	4f
.	.	4d
4E	4B	2e
[4A	4A	.
=93	=93	=93
4A]	4D	4f
4G	4E	4e
4F	4F	4d
4E	[4C	[4e
=94	=94	=94
2C	4C]	8e]
.	.	8c
.	2G	2c
2D	.	.
.	4F#x	4B
*M2/4	*M2/4	*M2/4
=95	=95	=95
2C	2G	2c
=96	=96	=96
*>C	*>C	*>C
!! Section 'C'; (O) mensuration.
*M3/4	*M3/4	*M3/4
2.r	2.c	2c
.	.	4e
=97	=97	=97
2.r	4.c	4e
.	.	4g
.	8B	.
.	8A	8a
.	8G	[8b
=98	=98	=98
2.r	4G	16b]
.	.	16g
.	.	4g
.	8E	.
.	8F	8f
.	4C	8a
.	.	[8g
=99	=99	=99
2.r	4c	16g]
.	.	16e
.	.	4e
.	4e	.
.	.	8c
.	8d	4d
.	8B	.
=100	=100	=100
2.r	8A	4c
.	4c	.
.	.	8g
.	8B	4g
.	4A	.
.	.	8f#x
=101	=101	=101
2.r	2.G	2g
.	.	4e
=102	=102	=102
2.r	2r	2r
.	4G	4g
=103	=103	=103
2.r	2.C	4a
.	.	4.g
.	.	8e
=104	=104	=104
2.r	2.B	4d
.	.	8e
.	.	4f
.	.	8e
=105	=105	=105
2.r	2c	4e
.	.	8c
.	.	8.e
.	4B	16f
.	.	[8g
=106	=106	=106
2.r	4G	8g]
.	.	8e
.	8F	8f
.	4A	8.e
.	.	16c
.	8G	8B
=107	=107	=107
2.r	4E	8c
.	.	4d
.	2D	.
.	.	8A
.	.	8B
.	.	16A
.	.	16B
=108	=108	=108
2.r	2C	4c
.	.	4r
.	4r	4g
=109	=109	=109
2.r	2.B	[4g
.	.	12g]
.	.	12f
.	.	12g
.	.	6f
.	.	12e
=110	=110	=110
2.r	2.B	8e
.	.	8f
.	.	2d
=111	=111	=111
2.r	2.c	2c
.	.	4r
=112	=112	=112
2.r	4E	2c
.	4F	.
.	4C	4e
=113	=113	=113
2.r	4r	4e
.	6F	4d
.	12G	.
.	6F	4f
.	12D	.
=114	=114	=114
2.r	2C	8e
.	.	4g
.	.	8.g
.	4B	.
.	.	16f
.	.	16e
.	.	16d
=115	=115	=115
2.r	4c	4c
.	2A	8g
.	.	4f#x
.	.	8e
=116	=116	=116
2.r	2.G	2.g
=117	=117	=117
2.r	2.r	2.r
=118	=118	=118
2.r	4D	4f
.	2C	8e
.	.	8f
.	.	8g
.	.	[8a
=119	=119	=119
2.r	4c	8a]
.	.	4g
.	8B	.
.	4A	8f
.	.	4e
.	8G	.
=120	=120	=120
2.r	8F	8.d
.	8E	.
.	.	16c
.	4G	8B
.	.	8G
.	8E	8r
.	[8F	8c
=121	=121	=121
2.r	8F]	6d
.	8G	.
.	.	12c
.	4E	6e
.	.	12f
.	4C	6e
.	.	12c
=122	=122	=122
2.r	4E	6B
.	.	12c
.	2D	6d
.	.	6A
.	.	12B
.	.	24A
.	.	24B
=123	=123	=123
2.r	4C	2c
.	4r	.
.	4c	4A
=124	=124	=124
2.r	4e	4c
.	2d	4.B
.	.	8A
=125	=125	=125
2.r	2.c	4A
.	.	4F
.	.	4r
=126	=126	=126
2.r	4B-	4g
.	2F	4.a
.	.	8g
=127	=127	=127
2.r	4B-x	2g
.	2A	.
.	.	8f#x
.	.	8e
=128	=128	=128
2.r	2.G	2g
.	.	4r
=129	=129	=129
2.r	4E	4g
.	4D	4f
.	4C	4e
=130	=130	=130
2.r	4F	8d
.	.	8c
.	8E	4e
.	4G	.
.	.	8d
.	8F	[8f
=131	=131	=131
2.r	4A	8f]
.	.	8e
.	8G	8.g
.	8E	.
.	.	16f
.	8F	4d
.	[8G	.
=132	=132	=132
2.r	8G]	8e
.	8.F	16f
.	.	16e
.	.	16d
.	16C	16c
.	8E	4c
.	4D	.
.	.	8B
=133	=133	=133
2.r	2.C	2.c
=134	=134	=134
*>D	*>D	*>D
!! Section 'D'; (O) mensuration.
2.C	2.G	2.c
=135	=135	=135
4F	4A	4d
2G	4G	4.e
.	4C	.
.	.	8d
=136	=136	=136
4F	4A	[4d
2E	4B	12d]
.	.	12c#x
.	.	12d
.	8G	6c#x
.	16F#x	.
.	.	12B
.	16G	.
=137	=137	=137
2.D	4A	4.d
.	4r	.
.	.	8e
.	4A	4f
=138	=138	=138
2B	4d	4g
.	4B	4.a
[4c	4A	.
.	.	8g
=139	=139	=139
4c]	4.c	4g
2A	.	8a
.	8d	4f#x
.	8e	.
.	8c#x	16e
.	.	16f#x
=140	=140	=140
[2.G	[2.d	[2.g
=140a	=140a	=140a
2.G]	2.d]	2.g]
=141	=141	=141
*>E	*>E	*>E
!! Section 'E'; (C/) mensuration.
*M4/4	*M4/4	*M4/4
1r	1c	2c
.	.	4e
.	.	4f
=142	=142	=142
*M6/4	*M6/4	*M6/4
1.r	4B	2g
.	2d	.
.	.	4f
.	4c	2e
.	2B	.
.	.	4d
=143	=143	=143
*M4/4	*M4/4	*M4/4
1r	2c	2c
.	4D	4B
.	[4C	4A
=144	=144	=144
1r	4C]	4G
.	4E	4.c
.	2D	.
.	.	8A
.	.	4B
=145	=145	=145
1r	2C	2c
.	2c	2r
=146	=146	=146
1r	4r	2d
.	4B	.
.	4A	4.e
.	4c	.
.	.	8c
=147	=147	=147
1r	4B	4d
.	4G	4e
.	4F	2f
.	[4D	.
=148	=148	=148
1r	4D]	4f
.	4c	4e
.	4d	2d
.	4B	.
=149	=149	=149
1r	1c	2c
.	.	4r
.	.	4e
=150	=150	=150
*M3/2	*M3/2	*M3/2
1.r	4r	4f
.	4F	4.a
.	4.G	.
.	.	8g
.	.	4g
.	8B-x	.
.	2A	4e
.	.	8f#x
.	.	16e
.	.	16f#x
=151	=151	=151
1.r	2G	2g
.	4F	2a
.	2D	.
.	.	4f
.	4C	[4g
=152	=152	=152
*M4/4	*M4/4	*M4/4
1r	2E	4g]
.	.	4e
.	4F	4d
.	4G	4e
=153	=153	=153
1r	4F	2f
.	2A	.
.	.	4e
.	4G	[4g
=154	=154	=154
1r	4B-x	4g]
.	4A	4f
.	4F	4d
.	[4G	[4e
=155	=155	=155
1r	4G]	8e]
.	.	8c
.	4E	2c
.	2D	.
.	.	4B
=156	=156	=156
1r	2C	2c
.	2r	2r
=157	=157	=157
1r	2c	2e
.	2A	4e
.	.	4f
=158	=158	=158
1r	4G	2g
.	2B	.
.	.	4d
.	4A	[4c
=159	=159	=159
1r	2c	4c]
.	.	4A
.	4d	2G
.	[4e	.
=160	=160	=160
1r	8e]	4c
.	8c	.
.	2c	4e
.	.	2d
.	4B	.
=161	=161	=161
1r	2c	4r
.	.	4c
.	4r	2c
.	4E	.
=162	=162	=162
1r	4F	4r
.	4E	4.c
.	2C	.
.	.	8d
.	.	4e
=163	=163	=163
*M6/4	*M6/4	*M6/4
1.r	4c	4A
.	2d	4.B
.	.	8G
.	4B	4.G
.	2A	.
.	.	16F#x
.	.	16G
.	.	8F#x
.	.	8E
=164	=164	=164
*M4/4	*M4/4	*M4/4
1r	2G	4G
.	.	4r
.	4G	4B
.	4A	4c
=165	=165	=165
*M6/4	*M6/4	*M6/4
1.r	4G	2d
.	2F	.
.	.	4c
.	4E	2c
.	2D	.
.	.	4B
=166	=166	=166
*M4/4	*M4/4	*M4/4
1r	2C	2c
.	2c	4r
.	.	4e
=167	=167	=167
1r	4r	2d
.	4B	.
.	2c	4r
.	.	4e
=168	=168	=168
1r	4r	4.f
.	4B	.
.	.	8g
.	2c	2e
=169	=169	=169
1r	2d	4d
.	.	2f
.	4B	.
.	4c	4e
=170	=170	=170
*M3/2	*M3/2	*M3/2
1.r	4.A	4f
.	.	4.a
.	8F	.
.	2B-	.
.	.	8g
.	.	2g
.	2A	.
.	.	4f#x
=171	=171	=171
1r	1G	1g
=172	=172	=172
*>F	*>F	*>F
!! Section 'F'; (C/) mensuration.
*M3/2	*M3/2	*M3/2
1C	2c	2.g
.	2G	.
.	.	2e
2c	2A	.
.	.	[4a
=173	=173	=173
*M4/4	*M4/4	*M4/4
2B	4B	4a]
.	2d	2g
2A	.	.
.	4c	4f#x
=174	=174	=174
2G	4d	4.g
.	4B	.
.	.	8e
4F	4A	4d
4E	4B	[4e
=175	=175	=175
2C	4c	4e]
.	2G	4g
2E	.	4e
.	4G	[4d
=176	=176	=176
2F	4.A	8d]
.	.	8c
.	.	2c
.	8G	.
2D	4A	.
.	12F#x	4B
.	12E	.
.	12F#x	.
=177	=177	=177
1C	1G	1c
=178	=178	=178
*>G	*>G	*>G
!! Section 'G'; (O) mensuration.
*M3/4	*M3/4	*M3/4
2.r	2.c	4.c
.	.	8d
.	.	4e
=179	=179	=179
2.r	2.c	8f
.	.	4a
.	.	8.g
.	.	16f
.	.	8g
=180	=180	=180
2.r	2.c	8.e
.	.	16c
.	.	8.e
.	.	16f
.	.	8g
.	.	[8a
=181	=181	=181
2.r	2.c	16a]
.	.	16g
.	.	4g
.	.	8f
.	.	4e
=182	=182	=182
2.r	4d	4d
.	8c	4r
.	8B	.
.	4A	8f
.	.	16e
.	.	16f
=183	=183	=183
2.r	8E	8g
.	8D	8f
.	4F	8.d
.	.	16c
.	8E	4e
.	[8G	.
=184	=184	=184
2.r	8G]	8d
.	8A	4f
.	4B	.
.	.	8g
.	4c	8e
.	.	[8a
=185	=185	=185
2.r	4c	16a]
.	.	16g
.	.	8.g
.	2A	.
.	.	16f#x
.	.	8g
.	.	8f#x
.	.	16e
.	.	16f#x
=186	=186	=186
2.r	2.G	2g
.	.	4r
=187	=187	=187
2.r	2.C	8e
.	.	16d
.	.	16e
.	.	8f
.	.	4e
.	.	8c
=188	=188	=188
2.r	2.C	8e
.	.	8f
.	.	8g
.	.	8.a
.	.	16g
.	.	[8g
=189	=189	=189
2.r	2.B	8g]
.	.	8f
.	.	4d
.	.	8r
.	.	8f
=190	=190	=190
2.r	4c	8.e
.	.	16c
.	4A	8e
.	.	8f
.	8r	8.e
.	8c	.
.	.	16c
=191	=191	=191
2.r	8B	4d
.	4G	.
.	.	8B
.	4A	8A
.	.	8c
.	8G	8B
=192	=192	=192
2.r	8F	8d
.	8E	8.e
.	8C	.
.	.	16c
.	8E	4c
.	4D	.
.	.	8B
=193	=193	=193
2.r	2.C	2.c
=194	=194	=194
2.r	2.r	2.r
=195	=195	=195
2.r	2.F	2c
.	.	4A
=196	=196	=196
2.r	2.G	4c
.	.	4.B
.	.	8A
=197	=197	=197
2.r	2.A	4A
.	.	4r
.	.	4a
=198	=198	=198
2.r	2.c	4.a
.	.	8g
.	.	4e
=199	=199	=199
2.r	2.e	4c
.	.	2A
=200	=200	=200
2.r	2d	4B
.	.	2G
.	[4B	.
=201	=201	=201
2.r	4B]	4.g
.	2A	.
.	.	16f#x
.	.	16g
.	.	8f#x
.	.	8e
=202	=202	=202
2.r	2.G	2g
.	.	4r
=203	=203	=203
2.r	4D	4f
.	2C	4.e
.	.	8c
=204	=204	=204
2.r	8c	8c
.	4d	8B
.	.	8G
.	8c	8c
.	8B	4d
.	16A	.
.	16B	.
=205	=205	=205
2.r	8c	4c
.	4A	.
.	.	8e
.	8B	8d
.	8A	4f
.	[8F	.
=206	=206	=206
2.r	8F]	8d
.	8G	4e
.	4C	.
.	.	4g
.	8E	.
.	8D	[8a
=207	=207	=207
2.r	4F	8a]
.	.	8f
.	8E	4g
.	4G	.
.	.	8e
.	8F	[8d
=208	=208	=208
2.r	4A	16d]
.	.	16e
.	.	4c
.	8F	.
.	8A	8f
.	8G	8.e
.	8E	.
.	.	16c
=209	=209	=209
2.r	8F	8.c
.	4C	.
.	.	16B
.	.	8c
.	8E	4B
.	4D	.
.	.	8A
=210	=210	=210
2.r	[2.C	[2.c
=210a	=210a	=210a
2.r	2.C]	2.c]
=211	=211	=211
*>H	*>H	*>H
!! Section 'H'; (O) mensuration.
[2.C	2.G	4.c
.	.	8d
.	.	4e
=212	=212	=212
2.C_	4A	8c
.	.	4e
.	2G	.
.	.	8f
.	.	8g
.	.	8a
=213	=213	=213
2.C_	2.c	4g
.	.	8e
.	.	4a
.	.	8g
=214	=214	=214
2.C]	2G	4.g
.	.	4e
.	4E	.
.	.	8c
=215	=215	=215
2.G	4C	2c
.	2E	.
.	.	4G
=216	=216	=216
2.F	2D	4B
.	.	2A
.	8c	.
.	8d	.
=217	=217	=217
2.G	4B	4.G
.	2d	.
.	.	8A
.	.	4B
=218	=218	=218
2E	2G	4c
.	.	4.d
[4F	4A	.
.	.	8c
=219	=219	=219
4F]	4A	4.c
2D	2F	.
.	.	8B
.	.	8B
.	.	8A
=220	=220	=220
2C	2.G	2.e
4E	.	.
=221	=221	=221
4F	2r	4c
2G	.	2B
.	4G	.
=222	=222	=222
[2.A	2.D	2A
.	.	4r
=223	=223	=223
2.A]	2r	4c
.	.	4.f
.	4F	.
.	.	8e
=224	=224	=224
2.c	[2.C	2e
.	.	[4a
=225	=225	=225
2.e	2.C]	4a]
.	.	4g
.	.	4cc
=226	=226	=226
2d	2B	4b
.	.	4.a
[4B	[4d	.
.	.	8g
=227	=227	=227
4B]	4d]	2g
2A	2c	.
.	.	4f#x
=228	=228	=228
2.G	4e	4.g
.	4d	.
.	.	8f
.	8B	8e
.	8A	8d
=229	=229	=229
2.A	4A	4c
.	2D	4.f
.	.	8e
=230	=230	=230
2G	4B	4e
.	8c	2d
.	8B	.
4F	8.A	.
.	16G	.
=231	=231	=231
4E	4.G	2c
2D	.	.
.	4F#x	.
.	.	8B
.	16E	8A
.	16F#x	.
=232	=232	=232
[2.C	[2.G	[2.c
=233	=233	=233
2.C]	2.G]	2.c]
==	==	==
*-	*-	*-
!!!ENC: Mark Laxton
!!!EDD: Mark Laxton
!!!YEC: Mark Laxton, 1987
!!!EMD: Reference records added by D. Huron, 2001
!!!EEV: 1.1
